Numix-GalliumOS/32/categories/preferences-certificates.svg

<?xml version="1.0" encoding="UTF-8" standalone="no"?>
<svg
   xmlns:dc="http://purl.org/dc/elements/1.1/"
   xmlns:cc="http://creativecommons.org/ns#"
   xmlns:rdf="http://www.w3.org/1999/02/22-rdf-syntax-ns#"
   xmlns:svg="http://www.w3.org/2000/svg"
   xmlns="http://www.w3.org/2000/svg"
   xmlns:sodipodi="http://sodipodi.sourceforge.net/DTD/sodipodi-0.dtd"
   xmlns:inkscape="http://www.inkscape.org/namespaces/inkscape"
   width="32"
   height="32"
   viewBox="0 0 32 32"
   id="svg2"
   version="1.1"
   inkscape:version="0.91 r"
   sodipodi:docname="preferences-certificates.svg">
  <metadata
     id="metadata30">
    <rdf:RDF>
      <cc:Work
         rdf:about="">
        <dc:format>image/svg+xml</dc:format>
        <dc:type
           rdf:resource="http://purl.org/dc/dcmitype/StillImage" />
        <dc:title />
      </cc:Work>
    </rdf:RDF>
  </metadata>
  <defs
     id="defs28" />
  <sodipodi:namedview
     pagecolor="#ffffff"
     bordercolor="#666666"
     borderopacity="1"
     objecttolerance="10"
     gridtolerance="10"
     guidetolerance="10"
     inkscape:pageopacity="0"
     inkscape:pageshadow="2"
     inkscape:window-width="1366"
     inkscape:window-height="704"
     id="namedview26"
     showgrid="true"
     inkscape:zoom="16"
     inkscape:cx="13.548193"
     inkscape:cy="11.964466"
     inkscape:window-x="0"
     inkscape:window-y="27"
     inkscape:window-maximized="1"
     inkscape:current-layer="svg2">
    <inkscape:grid
       type="xygrid"
       id="grid4158" />
  </sodipodi:namedview>
  <path
     inkscape:connector-curvature="0"
     d="m 15.992173,1.999997 c -1.018014,0 -1.871577,0.582171 -2.263119,1.403589 C 12.953799,2.87724 11.873141,2.773566 10.996086,3.260037 10.11903,3.738533 9.6570092,4.655651 9.7431484,5.5488442 8.8034461,5.5408642 7.824589,5.9077162 7.3234145,6.7291349 6.8144087,7.5585282 6.9162099,8.5793203 7.4800313,9.313014 6.6108069,9.679861 6,10.493305 6,11.450297 c 0,0.956993 0.6108069,1.770436 1.4800313,2.137284 -0.5559906,0.733694 -0.6656226,1.746511 -0.1566168,2.583879 0.5011747,0.821419 1.4800318,1.26004 2.4197341,1.180291 -0.086138,0.893193 0.3758814,1.81031 1.2529374,2.288807 0.391542,0.215322 0.573218,0.295072 1.003915,0.295072 l 0,10.06437 4,-3.54087 4,3.54087 0,-10.06437 c 0.422868,0 0.612374,-0.008 1.003917,-0.295072 0.877058,-0.478497 1.339076,-1.395614 1.252936,-2.288807 0.939704,0.008 1.918562,-0.358872 2.419734,-1.180291 0.509006,-0.829393 0.407206,-1.850185 -0.15662,-2.583879 C 25.389192,13.220733 26,12.40729 26,11.450297 26,10.493305 25.389192,9.679861 24.519968,9.313014 25.07596,8.5793203 25.18559,7.5665032 24.676588,6.7291349 24.175416,5.9077162 23.196558,5.4690945 22.256854,5.5488442 22.342994,4.655651 21.880976,3.738533 21.003918,3.260037 20.126863,2.781541 19.046203,2.87724 18.270949,3.403586 17.879407,2.582168 17.025843,1.999997 16.007831,1.999997 Z m 0,3.5009976 c 3.445572,0 6.249021,2.639704 6.249021,5.9014534 0,3.261749 -2.795617,5.901453 -6.249021,5.901453 -3.445578,0 -6.2490246,-2.639704 -6.2490246,-5.901453 0,-3.2617494 2.7956156,-5.9014534 6.2490246,-5.9014534 z m 0,1.1802905 c -2.756463,0 -4.996087,2.1133584 -4.996087,4.7211629 0,2.607804 2.239624,4.721162 4.996087,4.721162 2.756458,0 4.996082,-2.113358 4.996082,-4.721162 0,-2.6078045 -2.239624,-4.7211629 -4.996082,-4.7211629 z"
     style="fill:#d64c62;fill-opacity:1"
     id="path39"
     sodipodi:nodetypes="scccccscccccccccccccscccscssssssssssss" />
</svg>

<svg xmlns="http://www.w3.org/2000/svg" viewBox="0 0 32 32">
 <path d="m 15.992 2 c -1.018 0 -1.872 0.582 -2.263 1.404 c -0.775 -0.526 -1.856 -0.63 -2.733 -0.144 -0.877 0.478 -1.339 1.396 -1.253 2.289 -0.94 -0.008 -1.919 0.359 -2.42 1.18 -0.509 0.829 -0.407 1.85 0.157 2.584 -0.869 0.367 -1.48 1.18 -1.48 2.137 c 0 0.957 0.611 1.77 1.48 2.137 -0.556 0.734 -0.666 1.747 -0.157 2.584 0.501 0.821 1.48 1.26 2.42 1.18 -0.086 0.893 0.376 1.81 1.253 2.289 0.392 0.215 0.573 0.295 1 0.295 l 0 10.06 4 -3.541 4 3.541 0 -10.06 c 0.423 0 0.612 -0.008 1 -0.295 0.877 -0.478 1.339 -1.396 1.253 -2.289 0.94 0.008 1.919 -0.359 2.42 -1.18 0.509 -0.829 0.407 -1.85 -0.157 -2.584 c 0.869 -0.367 1.48 -1.18 1.48 -2.137 0 -0.957 -0.611 -1.77 -1.48 -2.137 0.556 -0.734 0.666 -1.747 0.157 -2.584 -0.501 -0.821 -1.48 -1.26 -2.42 -1.18 0.086 -0.893 -0.376 -1.81 -1.253 -2.289 -0.877 -0.478 -1.958 -0.383 -2.733 0.144 -0.392 -0.821 -1.245 -1.404 -2.263 -1.404 m -0.016 3.501 c 3.446 0 6.249 2.64 6.249 5.901 0 3.262 -2.796 5.901 -6.249 5.901 -3.446 0 -6.249 -2.64 -6.249 -5.901 0 -3.262 2.796 -5.901 6.249 -5.901 z m 0 1.18 c -2.756 0 -4.996 2.113 -4.996 4.721 0 2.608 2.24 4.721 4.996 4.721 2.756 0 4.996 -2.113 4.996 -4.721 0 -2.608 -2.24 -4.721 -4.996 -4.721 z" style="fill:#d64c62;fill-opacity:1"/>
</svg>
